X:1
T:Title
%%score { ( 1 3 ) | ( 2 4 ) }
L:1/8
M:4/4
K:Eb
V:1 treble nm="Grand Piano"
V:3 treble 
V:2 bass 
V:4 bass 
V:1
 z4 z2[Q:1/4=100] [EG][FA] | [GB]2 [Ac]2 [GB]2 [Be]2 | [Bd]3 [Ac] [GB]2 [Gc]2 | [FA]2 [FB]2 G2 A2 | %4
[M:3/4] F6 |[M:1/4] GA |[M:4/4] B2 c2 B2 e2 | d3 c B2 Bc | d2 B2 F2 c2 |[M:3/4] [DB]6 |[M:1/4] FG | %11
[M:4/4] A2 [DA]2 A2 GA | B2 B2 B2 cd | e2 c2 B2 G2 |[M:3/4] [DF]6 |[M:1/4] GA | %16
[M:4/4] B2 B2 B2 GE |[M:9/8] [Ec]2 [=Ec]- [Ec] c2- cdc |[M:4/4] z2 [Ge]2 z4 |[M:3/4] E6 | %20
[M:1/4] EF |[M:4/4] G2 B2 B2 c2 | B6 z2 | F2 c2 c2 d2 |[M:3/4] c6 |[M:1/4] [Ac][Ae] | %26
[M:4/4] d2 c2 [FA]2 [FA][Ad] | [Gc]2 [GB]2 G2 AB | c2 e2 e2 [Fd]2 |[M:7/8] e-e-e- e- e3 |] %30
V:2
 z4 z2 [E,B,][E,B,] | [E,E]2 [E,E]2 [E,E]2 [G,E]2 | [A,E]3 [A,E] [E,E]2 [=E,C]2 | %3
 [F,C]2 [D,B,]2 [E,B,E]2 [F,A,C]2 |[M:3/4] [B,D]6 |[M:1/4] [E,B,E][F,B,E] | %6
[M:4/4] [G,B,E]2 [A,E]2 [G,B,E]2 [E,CE]2 | [E,B,E]3 [E,A,E] [E,G,E]2 [G,B,E][_G,B,E] | %8
 [F,B,F]2 [F,DF]2 [F,CE]2 [F,=A,F]2 |[M:3/4] [B,,B,]6 |[M:1/4] [A,B,D][G,B,E] | %11
[M:4/4] [F,B,D]2 [B,,B,]2 [F,B,D]2 [B,D][A,B,D] | [G,B,E]2 [F,A,D]2 [E,G,E]2 [A,E][A,E] | %13
 [G,B,E]2 [A,E]2 [G,B,E]2 [E,B,E]2 |[M:3/4] [B,,B,]6 |[M:1/4] [E,B,E][F,B,E] | %16
[M:4/4] [G,B,E]2 [F,A,D]2 [E,G,E]2 [E,B,E][E,G,] | %17
[M:9/8] [A,,A,]2 [C,G,]- [C,G,] [F,A,F]2- [F,A,F][_G,=A,E][G,A,E] | %18
[M:4/4] [G,B,E]2 .[E,B,]2 [B,E]2 [B,,A,]2 |[M:3/4] [E,G,]6 |[M:1/4] [E,G,][E,A,E] | %21
[M:4/4] [E,B,E]2 [E,G,E]2 [E,G,E]2 [E,A,E]2 | [E,G,E]2 [B,,F,]2 [E,G,]2 [C,C][C,B,] | %23
 [F,A,]2 [F,A,F]2 [F,A,F]2 [F,A,F]2 |[M:3/4] [F,A,F]2 [C,G,]2 [F,A,]2 |[M:1/4] [F,C][F,C] | %26
[M:4/4][K:treble] [B,B]2 [B,A]2[K:bass] [B,,B,]2 [B,,B,][B,,B,] | %27
 [E,B,]2 [E,E]2 [E,B,E]2 [F,B,E][K:treble][G,B,E] | [A,E]2 [A,CA]2 [B,G]2[K:bass] [B,,B,]2 | %29
[M:7/8] B,2 z z z z2 |] %30
V:3
 x8 | x8 | x8 | x8 |[M:3/4] x6 |[M:1/4] x2 |[M:4/4] x8 | x8 | x8 |[M:3/4] x6 |[M:1/4] x2 | %11
[M:4/4] x8 | x8 | x8 |[M:3/4] x6 |[M:1/4] x2 |[M:4/4] x8 |[M:9/8] x9 |[M:4/4] B2 z G, G2 [DF]2 | %19
[M:3/4] x6 |[M:1/4] x2 |[M:4/4] x8 | z2 D2 E2 [=EA][EG] | x8 |[M:3/4] z2 =E2 F2 |[M:1/4] x2 | %26
[M:4/4] x8 | x8 | x8 |[M:7/8] G2 A2 G3 |] %30
V:4
 x8 | x8 | x8 | x8 |[M:3/4] x6 |[M:1/4] x2 |[M:4/4] x8 | x8 | x8 |[M:3/4] x6 |[M:1/4] x2 | %11
[M:4/4] x8 | x8 | x8 |[M:3/4] x6 |[M:1/4] x2 |[M:4/4] x8 |[M:9/8] x9 |[M:4/4] x8 |[M:3/4] x6 | %20
[M:1/4] x2 |[M:4/4] x8 | x8 | x8 |[M:3/4] x6 |[M:1/4] x2 |[M:4/4][K:treble] x4[K:bass] x4 | %27
 x7[K:treble] x | x6[K:bass] x2 |[M:7/8] E,2- [E,-C]2 [E,B,]3 |] %30

